X: 2101
T: The Marchioness of Blandford's Reel
P: Countess of Loudon's Reel
C:Traditional
R:Jig (8x48)
B:RSCDS 21-1
Z:Anselm Lingnau <anselm@strathspey.org>
M:6/8
L:1/8
K:D
|:A|"D"d3 fef|d3 AB=c|"Em"BAB gfe|"D"fed "A7"cBA|\
    "D"d3 fef|d3 AGF|
                     "Em"GAB "A7"EAG|"D"FDD D2||\
  A|"D"FAD FAD|"Em7"GBE GBE|"A7"Ace gfe|"D"DAG FGE|
    "D"FAD FAD|"Em7"GBE GBE|"A7"Ace gfe|"D"d3 D2 A|\
    "D"FAD FAD|"Em7"GBE GBE|
                            "A7"Ace gfe|"D"dAG FGE|\
    "D"D2d "A/C#"E2e|"D"F2f "Em"G2g|"D/A"[aA]fd "A"[eE]cA|"D"[d3A3F3D3][dAFD]:|
%%center Book21/2101-Marchioness_of_Blandfords_Reel-AL.abc

%%sep 1 1 500
%%sep 1 1 500

